static/img/cosmos-icon.svg

<svg width="50" height="50" viewBox="0 0 50 50" fill="none" xmlns="http://www.w3.org/2000/svg">
<g clip-path="url(#clip0_916_1838)">
<path fill-rule="evenodd" clip-rule="evenodd" d="M25 0.0479736C38.7806 0.0479736 49.9522 11.2194 49.9522 25C49.9522 38.7806 38.7806 49.9521 25 49.9521C11.2194 49.9521 0.0480042 38.7806 0.0480042 25C0.0480042 11.2194 11.2194 0.0479736 25 0.0479736Z" fill="#171717"/>
<path fill-rule="evenodd" clip-rule="evenodd" d="M24.952 10.6046C32.9023 10.6046 39.3474 17.0497 39.3474 25C39.3474 32.9504 32.9023 39.3954 24.952 39.3954C17.0016 39.3954 10.5566 32.9504 10.5566 25C10.5566 17.0497 17.0016 10.6046 24.952 10.6046Z" fill="black"/>
<path opacity="0.67" fill-rule="evenodd" clip-rule="evenodd" d="M25.3919 4.31587C25.1937 4.13346 25.0914 4.13 25.0742 4.13C25.057 4.13 24.9547 4.13346 24.7565 4.31587C24.5531 4.50312 24.3099 4.82619 24.0478 5.32468C23.5247 6.31965 23.0241 7.82356 22.5926 9.76409C22.1074 11.9463 21.724 14.6136 21.4821 17.5994C22.6504 18.1647 23.8518 18.7793 25.0739 19.4392C26.2962 18.7792 27.4978 18.1645 28.6664 17.5991C28.4245 14.6135 28.0411 11.9463 27.5559 9.76409C27.1244 7.82356 26.6237 6.31965 26.1007 5.32468C25.8386 4.82619 25.5954 4.50312 25.3919 4.31587ZM24.0514 19.9993C23.1539 19.5224 22.2697 19.0713 21.4039 18.6474C21.3383 19.6087 21.2872 20.5995 21.2517 21.6147C21.7096 21.3405 22.1742 21.0674 22.645 20.7957C23.1159 20.524 23.5849 20.2585 24.0514 19.9993ZM20.5395 17.1506C21.2407 8.96306 23.0066 3.15344 25.0742 3.15344C27.1418 3.15344 28.9078 8.96291 29.6089 17.1504C37.0543 13.6636 42.9715 12.2873 44.0053 14.0768C45.0391 15.8663 40.8878 20.2994 34.1435 25C40.8878 29.7005 45.0391 34.1336 44.0053 35.9231C42.9715 37.7126 37.0543 36.3364 29.6089 32.8496C28.9078 41.037 27.1418 46.8465 25.0742 46.8465C23.0066 46.8465 21.2407 41.0369 20.5395 32.8493C13.0938 36.3363 7.17637 37.7127 6.14253 35.9231C5.10869 34.1336 9.26001 29.7005 16.0043 25C9.26001 20.2994 5.10869 15.8664 6.14253 14.0768C7.17637 12.2873 13.0938 13.6637 20.5395 17.1506ZM16.8649 24.4084C14.3982 22.706 12.2784 21.0404 10.6298 19.5292C9.16391 18.1854 8.11098 17.0001 7.51025 16.0499C7.20932 15.5739 7.05102 15.2018 6.99053 14.9323C6.93159 14.6697 6.97973 14.5798 6.98813 14.5654C6.99653 14.5508 7.05058 14.4639 7.30786 14.3836C7.57197 14.301 7.97368 14.2521 8.53681 14.2745C9.66074 14.3193 11.2145 14.638 13.1119 15.2348C15.2456 15.906 17.7487 16.9078 20.4571 18.1913C20.3628 19.4849 20.2947 20.8319 20.2555 22.2193C19.0724 22.9472 17.9391 23.6798 16.8649 24.4084ZM16.8649 25.5916C14.3982 27.294 12.2784 28.9596 10.6298 30.4708C9.16391 31.8145 8.11098 32.9998 7.51025 33.95C7.20932 34.4261 7.05102 34.7981 6.99053 35.0677C6.93159 35.3302 6.97973 35.4201 6.98813 35.4346C6.99648 35.4491 7.05049 35.536 7.30786 35.6164C7.57197 35.6989 7.97368 35.7479 8.53681 35.7255C9.66074 35.6806 11.2145 35.362 13.1119 34.7651C15.2456 34.094 17.7487 33.0922 20.4571 31.8086C20.3628 30.515 20.2947 29.1681 20.2555 27.7806C19.0724 27.0528 17.9391 26.3202 16.8649 25.5916ZM20.2296 26.6156C19.3674 26.0772 18.5343 25.5375 17.7339 25C18.5343 24.4625 19.3674 23.9227 20.2296 23.3843C20.2209 23.9178 20.2166 24.4566 20.2166 25C20.2166 25.5434 20.2209 26.0822 20.2296 26.6156ZM21.2182 27.2246C21.2016 26.4937 21.1931 25.7515 21.1931 25C21.1931 24.2484 21.2016 23.5063 21.2182 22.7754C21.8432 22.3956 22.4819 22.0172 23.1331 21.6415C23.7845 21.2656 24.4321 20.9019 25.0739 20.5507C25.7158 20.9019 26.3633 21.2656 27.0147 21.6415C27.6661 22.0174 28.3051 22.3959 28.9302 22.7758C28.9468 23.5065 28.9554 24.2486 28.9554 25C28.9554 25.7514 28.9468 26.4934 28.9302 27.2242C28.3051 27.6041 27.6661 27.9826 27.0147 28.3584C26.3633 28.7343 25.7158 29.0981 25.0739 29.4492C24.4321 29.0981 23.7845 28.7343 23.1331 28.3584C22.4819 27.9827 21.8432 27.6044 21.2182 27.2246ZM21.2517 28.3852C21.2872 29.4005 21.3383 30.3913 21.4039 31.3525C22.2697 30.9287 23.1539 30.4775 24.0514 30.0007C23.5849 29.7415 23.1159 29.476 22.645 29.2043C22.1742 28.9326 21.7096 28.6594 21.2517 28.3852ZM25.0739 30.5608C23.8518 31.2207 22.6504 31.8352 21.4821 32.4005C21.724 35.3864 22.1074 38.0536 22.5926 40.2358C23.0241 42.1764 23.5247 43.6803 24.0478 44.6753C24.3099 45.1738 24.5531 45.4968 24.7565 45.6841C24.9547 45.8665 25.057 45.8699 25.0742 45.8699C25.0914 45.8699 25.1937 45.8665 25.3919 45.6841C25.5954 45.4968 25.8386 45.1738 26.1007 44.6753C26.6237 43.6803 27.1244 42.1764 27.5559 40.2358C28.0411 38.0537 28.4245 35.3865 28.6664 32.4008C27.4978 31.8354 26.2962 31.2208 25.0739 30.5608ZM29.6914 31.8089C32.3995 33.0923 34.9024 34.094 37.0359 34.7651C38.9334 35.362 40.4871 35.6806 41.611 35.7255C42.1741 35.7479 42.5758 35.6989 42.84 35.6164C43.0974 35.536 43.1513 35.4491 43.1597 35.4346C43.1681 35.4202 43.2163 35.3303 43.1573 35.0677C43.0968 34.7981 42.9385 34.4261 42.6375 33.95C42.0369 32.9998 40.9839 31.8145 39.518 30.4708C37.8695 28.9596 35.7496 27.294 33.283 25.5916C32.209 26.32 31.0758 27.0525 29.893 27.7802C29.8538 29.1679 29.7856 30.5151 29.6914 31.8089ZM33.283 24.4084C35.7496 22.706 37.8695 21.0404 39.518 19.5292C40.9839 18.1854 42.0369 17.0001 42.6375 16.0499C42.9385 15.5739 43.0968 15.2018 43.1573 14.9323C43.2163 14.6696 43.1681 14.5798 43.1597 14.5654C43.1513 14.5508 43.0974 14.464 42.84 14.3836C42.5758 14.301 42.1741 14.2521 41.611 14.2745C40.4871 14.3193 38.9334 14.638 37.0359 15.2348C34.9024 15.9059 32.3995 16.9076 29.6914 18.191C29.7856 19.4849 29.8538 20.832 29.893 22.2197C31.0758 22.9474 32.209 23.6799 33.283 24.4084ZM29.9188 23.3847C30.7808 23.923 31.6138 24.4626 32.4139 25C31.6138 25.5373 30.7808 26.077 29.9188 26.6153C29.9275 26.0819 29.9319 25.5432 29.9319 25C29.9319 24.4567 29.9275 23.918 29.9188 23.3847ZM28.8968 21.6151C28.8613 20.5996 28.8102 19.6086 28.7445 18.6471C27.8786 19.0711 26.9941 19.5223 26.0964 19.9993C26.563 20.2585 27.032 20.524 27.5028 20.7957C27.9739 21.0675 28.4387 21.3407 28.8968 21.6151ZM28.7445 31.3528C27.8786 30.9289 26.9941 30.4777 26.0964 30.0007C26.563 29.7415 27.032 29.476 27.5028 29.2043C27.9739 28.9325 28.4387 28.6592 28.8968 28.3848C28.8613 29.4003 28.8102 30.3913 28.7445 31.3528Z" fill="white"/>
<path fill-rule="evenodd" clip-rule="evenodd" d="M11.1107 18.882C11.9592 18.882 12.647 19.5701 12.647 20.4189C12.647 21.2678 11.9592 21.9559 11.1107 21.9559C10.2623 21.9559 9.57446 21.2678 9.57446 20.4189C9.57446 19.5701 10.2623 18.882 11.1107 18.882Z" fill="white"/>
<path fill-rule="evenodd" clip-rule="evenodd" d="M35.5267 13.6187C36.3755 13.6187 37.0637 14.3068 37.0637 15.1557C37.0637 16.0045 36.3755 16.6927 35.5267 16.6927C34.6778 16.6927 33.9897 16.0045 33.9897 15.1557C33.9897 14.3068 34.6778 13.6187 35.5267 13.6187Z" fill="white"/>
<path fill-rule="evenodd" clip-rule="evenodd" d="M21.9785 37.7429C22.8274 37.7429 23.5155 38.4307 23.5155 39.2792C23.5155 40.1276 22.8274 40.8154 21.9785 40.8154C21.1296 40.8154 20.4415 40.1276 20.4415 39.2792C20.4415 38.4307 21.1296 37.7429 21.9785 37.7429Z" fill="white"/>
<path fill-rule="evenodd" clip-rule="evenodd" d="M24.9886 22.3864C26.4258 22.3864 27.5908 23.5514 27.5908 24.9886C27.5908 26.4258 26.4258 27.5908 24.9886 27.5908C23.5515 27.5908 22.3864 26.4258 22.3864 24.9886C22.3864 23.5514 23.5515 22.3864 24.9886 22.3864Z" fill="white"/>
</g>
<defs>
<clipPath id="clip0_916_1838">
<rect width="50" height="50" fill="white"/>
</clipPath>
</defs>
</svg>

<svg xmlns="http://www.w3.org/2000/svg" width="50" height="50" fill="none"><g fill-rule="evenodd" clip-path="url(#a)" clip-rule="evenodd"><path fill="#171717" d="M25 .048C38.78.048 49.952 11.219 49.952 25c0 13.78-11.171 24.952-24.952 24.952C11.22 49.952.048 38.781.048 25 .048 11.22 11.219.048 25 .048"/><path fill="#000" d="M24.952 10.605c7.95 0 14.395 6.445 14.395 14.395s-6.445 14.395-14.395 14.395S10.557 32.95 10.557 25s6.445-14.395 14.395-14.395"/><path fill="#fff" d="M25.392 4.316c-.198-.183-.3-.186-.318-.186-.017 0-.12.003-.318.186-.203.187-.446.51-.708 1.009-.523.995-1.024 2.499-1.455 4.44-.486 2.181-.869 4.849-1.11 7.834a92 92 0 0 1 3.59 1.84 91 91 0 0 1 3.593-1.84c-.242-2.985-.625-5.653-1.11-7.835-.432-1.94-.932-3.444-1.455-4.44-.262-.498-.506-.82-.71-1.008m-1.34 15.683a90 90 0 0 0-2.648-1.352 90 90 0 0 0-.152 2.968 100 100 0 0 1 2.8-1.616m-3.512-2.848c.7-8.188 2.467-13.998 4.534-13.998 2.068 0 3.834 5.81 4.535 13.997 7.445-3.486 13.362-4.863 14.396-3.073S40.888 20.299 34.144 25c6.744 4.7 10.895 9.134 9.861 10.923-1.034 1.79-6.95.413-14.396-3.073-.701 8.187-2.467 13.996-4.535 13.996s-3.833-5.81-4.535-13.997c-7.445 3.487-13.363 4.864-14.396 3.074S9.26 29.701 16.004 25C9.26 20.3 5.11 15.866 6.143 14.077c1.033-1.79 6.95-.413 14.397 3.074m-3.675 7.257c-2.467-1.702-4.587-3.368-6.235-4.879C9.164 18.185 8.11 17 7.51 16.05c-.3-.475-.459-.847-.52-1.117-.058-.262-.01-.352-.002-.367.009-.014.063-.101.32-.181.264-.083.666-.132 1.229-.11 1.124.045 2.677.364 4.575.96 2.134.672 4.637 1.674 7.345 2.957a91 91 0 0 0-.201 4.028 91 91 0 0 0-3.391 2.19m0 1.184c-2.467 1.702-4.587 3.368-6.235 4.879C9.164 31.814 8.11 33 7.51 33.95c-.3.476-.459.848-.52 1.118-.058.262-.01.352-.002.367.008.014.062.101.32.181.264.083.666.132 1.229.11 1.124-.045 2.677-.364 4.575-.96 2.134-.672 4.637-1.674 7.345-2.957a91 91 0 0 1-.201-4.028 91 91 0 0 1-3.391-2.19m3.365 1.024A90 90 0 0 1 17.734 25q1.2-.807 2.496-1.616a99 99 0 0 0 0 3.232m.988.609a98 98 0 0 1 0-4.45 98 98 0 0 1 3.856-2.224 98 98 0 0 1 3.856 2.225 98 98 0 0 1 0 4.448 98 98 0 0 1-3.856 2.225 98 98 0 0 1-3.856-2.224m.034 1.16a90 90 0 0 0 .152 2.967q1.3-.636 2.647-1.351a100 100 0 0 1-2.8-1.616m3.822 2.176a91 91 0 0 1-3.592 1.84c.242 2.985.625 5.653 1.11 7.835.432 1.94.933 3.444 1.456 4.44.262.498.505.82.709 1.008.198.183.3.186.317.186s.12-.003.318-.186c.203-.187.447-.51.709-1.009.523-.995 1.023-2.499 1.455-4.44.485-2.181.868-4.849 1.11-7.834a91 91 0 0 1-3.592-1.84m4.617 1.248c2.709 1.283 5.211 2.285 7.345 2.956 1.897.597 3.451.916 4.575.96.563.023.965-.026 1.229-.109.257-.08.311-.167.32-.181.008-.015.056-.105-.003-.367-.06-.27-.218-.642-.52-1.118-.6-.95-1.653-2.136-3.119-3.48-1.648-1.51-3.768-3.176-6.235-4.878a91 91 0 0 1-3.39 2.188 91 91 0 0 1-.202 4.029m3.592-7.4c2.467-1.703 4.587-3.369 6.235-4.88 1.466-1.344 2.519-2.529 3.12-3.48.3-.475.459-.847.52-1.117.058-.262.01-.352.002-.367-.009-.014-.063-.101-.32-.181-.264-.083-.666-.132-1.229-.11-1.124.045-2.678.364-4.575.96-2.134.672-4.636 1.674-7.345 2.957.095 1.294.163 2.641.202 4.029a91 91 0 0 1 3.39 2.188m-3.364-1.024A90 90 0 0 1 32.414 25q-1.201.807-2.495 1.615a99 99 0 0 0 0-3.23m-1.022-1.77a89 89 0 0 0-.152-2.968A90 90 0 0 0 26.095 20a99 99 0 0 1 2.8 1.616m-.152 9.738A90 90 0 0 1 26.095 30a99 99 0 0 0 2.8-1.616 89 89 0 0 1-.152 2.968" opacity=".67"/><path fill="#fff" d="M11.11 18.882a1.537 1.537 0 1 1 0 3.073 1.537 1.537 0 0 1 0-3.073m24.417-5.263a1.537 1.537 0 1 1 0 3.074 1.537 1.537 0 0 1 0-3.074M21.979 37.743a1.537 1.537 0 1 1 0 3.073 1.537 1.537 0 0 1 0-3.073m3.01-15.357a2.602 2.602 0 1 1 0 5.205 2.602 2.602 0 0 1 0-5.205"/></g><defs><clipPath id="a"><path fill="#fff" d="M0 0h50v50H0z"/></clipPath></defs></svg>
